X: 29
T: Cattle in the Crops
B: NEFR #29
F: http://www.ibiblio.org/fiddlers/CAT_CAZ.htm
L: 1/8
M: 6/8
K: D
|: "D"AFA fed | "G"BGB g2B | "D"AFA "Bm"fed | "Em"BcB "A7"B2B \
|  "D"AFA fed | "G"BGB "(A7)"g2g | "D"f/g/af "A7"gec | "D"ded d3 :|
|: "D"a2a afd | "G"gab "A7"a2g | "D"fga "Bm"agf | "Em"gfg "A7"efg \
|  "D"aba afd | "G"gab "A7"a2g | "D"f/g/af "A7"gec | "D"ded d3 :|
